exported-svg/corner-left-down.svg

<svg height="24" viewBox="0 0 24 24" width="24" xmlns="http://www.w3.org/2000/svg"><path d="m9 19.2928932v-10.7928932c0-2.48528137 2.0147186-4.5 4.5-4.5h7c.2761424 0 .5.22385763.5.5s-.2238576.5-.5.5h-7c-1.9329966 0-3.5 1.56700338-3.5 3.5v10.7928932l4.1464466-4.1464466c.1952622-.1952621.5118446-.1952621.7071068 0 .1952621.1952622.1952621.5118446 0 .7071068l-5.00000001 5c-.19526215.1952621-.51184463.1952621-.70710678 0l-5-5c-.19526215-.1952622-.19526215-.5118446 0-.7071068.19526215-.1952621.51184463-.1952621.70710678 0z"/></svg>

<?xml version="1.0" encoding="UTF-8"?>
<svg width="24px" height="24px" viewBox="0 0 24 24" version="1.1" xmlns="http://www.w3.org/2000/svg" xmlns:xlink="http://www.w3.org/1999/xlink">
    <!-- Generator: Sketch 55.2 (78181) - https://sketchapp.com -->
    <title>corner-left-down</title>
    <desc>Created with Sketch.</desc>
    <g id="corner-left-down" stroke="none" stroke-width="1" fill="none" fill-rule="evenodd">
        <path d="M9,19.2928932 L9,8.5 C9,6.01471863 11.0147186,4 13.5,4 L20.5,4 C20.7761424,4 21,4.22385763 21,4.5 C21,4.77614237 20.7761424,5 20.5,5 L13.5,5 C11.5670034,5 10,6.56700338 10,8.5 L10,19.2928932 L14.1464466,15.1464466 C14.3417088,14.9511845 14.6582912,14.9511845 14.8535534,15.1464466 C15.0488155,15.3417088 15.0488155,15.6582912 14.8535534,15.8535534 L9.85355339,20.8535534 C9.65829124,21.0488155 9.34170876,21.0488155 9.14644661,20.8535534 L4.14644661,15.8535534 C3.95118446,15.6582912 3.95118446,15.3417088 4.14644661,15.1464466 C4.34170876,14.9511845 4.65829124,14.9511845 4.85355339,15.1464466 L9,19.2928932 Z" id="Combined-Shape" fill="#000000" fill-rule="nonzero"></path>
    </g>
</svg>
